!!!COM: Buxtehude, Dietrich
!!!CDT: ~1637///-1707/05/09/
!!!ODT: ~1694///
!!!OTL: Sonata in B-flat Major, Op. 1, No. 4
!!!OPS: Op. 1
!!!ONM: No. 4
!!!SCA: BuxWV 255
!!!OMD: 3. Allegro
!!!URL: http://www.lysator.liu.se/~tuben/scores
**kern	**kern	**kern
*staff3	*staff2	*staff1
*clefF4	*clefC3	*clefG2
*Icemba	*Iviola	*Ivioln
*k[b-e-]	*k[b-e-]	*k[b-e-]
*M2/2	*M2/2	*M2/2
=127-	=127-	=127-
4BB-/	4B-/	8b-\L
.	.	8ff\J
8r	4r	8bb-\L
8BB-/	.	8dd\J
8D\L	2r	8ff\L
8E-\J	.	16ee-\L
.	.	16dd\JJ
8F/L	.	8cc\L
8AA/J	.	16ff\L
.	.	16ee-\JJ
=128	=128	=128
8BB-/L	1r	8dd\L
8GG/J	.	16bb-\L
.	.	16aa\JJ
8C/L	.	8gg\L
8CC/J	.	16ccc\L
.	.	16bb-\JJ
2FF/	.	16aa\LL
.	.	16bb-\
.	.	16ccc\
.	.	16bb-\JJ
.	.	16aa\LL
.	.	16gg\
.	.	16ff\
.	.	16ee-\JJ
=129	=129	=129
8BB-/	8r	8.dd\L
8B-\L	8B-\L	.
.	.	16dd\Jk
8f\	8f\	8.cc\L
8A\J	8A\J	.
.	.	16ccc\Jk
4B-\	8B-/L	8.ff\L
.	16A-/L	.
.	16G/JJ	16gg\Jk
8F\L	8F/L	8aa\L
8B-\J	16B-/L	8ff\J
.	16A-/JJ	.
=130	=130	=130
8G\L	8G\L	8bb-\L
8e-\J	16e-\L	8b-\J
.	16d\JJ	.
8c\L	8c\L	8ee-\L
8f\J	16f\L	8cc\J
.	16e-\JJ	.
8.d\L	16d\LL	2ff\
.	16e-\	.
.	16f\	.
16c\Jk	16e-\JJ	.
8.B-\L	16d/LL	.
.	16c/	.
.	16B-/	.
16A-\Jk	16A-/JJ	.
=131	=131	=131
4G\	8.G/L	8r
.	.	8b-\L
.	16G/Jk	.
8F\L	8.F/L	8ff\
8f\J	.	8a\J
.	16f/Jk	.
4.B-\	8.B-/L	8b-/L
.	.	16a-/L
.	16c/Jk	16g/JJ
.	8d\L	8f/L
8B-\	8B-\J	16b-/L
.	.	16a-/JJ
=132	=132	=132
8e-\L	8e-/L	8g\L
8E-\J	8E-/	16ee-\L
.	.	16dd\JJ
8A-\L	8A-/	8cc\L
8F\J	8F/J	16ff\L
.	.	16ee-\JJ
4.B-\	4.B-/	16dd\LL
.	.	16ee-\
.	.	16ff\
.	.	16ee-\JJ
.	.	16dd\LL
.	.	16cc\
8D\	8D/	16b-\
.	.	16a-\JJ
=133	=133	=133
4.E-\	16E-/LL	4g/
.	16F/	.
.	16G/	.
.	16F/JJ	.
.	16E-/LL	4r
.	16F/	.
8D\	16D/	.
.	16E-/JJ	.
2C/	4C/	16ee-\LL
.	.	16ff\
.	.	16gg\
.	.	16ff\JJ
.	4r	16ee-\LL
.	.	16dd\
.	.	16cc\
.	.	16b-\JJ
*	*clefF4	*
=134	=134	=134
4F\	8r	16a/LL
.	.	16b-/
.	8F\L	16a/
.	.	16g/JJ
8B-\L	8B-\	8.f\L
8D\J	8D\J	.
.	.	16ff\Jk
4F\	8F\L	8.cc\L
.	16E-\L	.
.	16D\JJ	16dd\k
8C\L	8C\L	8ee-\
8F\J	16F\L	8cc\J
.	16E-\JJ	.
=135	=135	=135
8D\L	8D\L	8ff/L
8B-\J	16B-\L	8f/
.	16A\JJ	.
8G\L	8G\L	8b-/
8c\J	16c\L	8g/J
.	16B-\JJ	.
8.A\L	16A\LL	4.cc\
.	16B-\	.
.	16c\	.
16G\Jk	16B-\JJ	.
8.F\L	16A\LL	.
.	16G\	.
.	16F\	8cc\
16E-\Jk	16E-\JJ	.
=136	=136	=136
4.D\	8.D\L	16dd\LL
.	.	16ee-\
.	.	16ff\
.	16E-\Jk	16ee-\JJ
.	8.F\L	16dd\LL
.	.	16cc\
8D\	.	16b-\
.	16D\Jk	16a\JJ
4E-\	8.E-\L	16g/LL
.	.	16a/
.	.	16b-/
.	16E-\Jk	16cc/JJ
4D\	8.D\L	16dd\LL
.	.	16ee-\
.	.	16ff\
.	16D\Jk	16b-\JJ
=137	=137	=137
4C/	4C/	16ee-\LL
.	.	16g\
.	.	16cc\
.	.	16b-\JJ
8F\L	8F\L	16a/LL
.	.	16g/
8A\J	8A\J	16f/
.	.	16e-/JJ
8B-\L	8B-\L	16d/LL
.	.	16f/
8A\J	8A\J	16g/
.	.	16a/JJ
4G\	4G\	16b-\LL
.	.	16cc\
.	.	16dd\
.	.	16een\JJ
=138	=138	=138
8.F\L	8.F\L	8ff/L
.	.	8f/
16D\Jk	16D\Jk	.
8BB-\L	8BB-\L	8b-/
8B-\J	8B-\J	8d/J
8.F\L	8.F\L	8f/L
.	.	16e-/L
16G\Jk	16G\Jk	16d/JJ
8A\L	8A\L	8c/L
8F\J	8F\J	16f/L
.	.	16e-/JJ
=139	=139	=139
8B-\L	8B-\L	8d/L
8BB-\J	8BB-\	16b-/L
.	.	16a/JJ
8E-\L	8E-\	8g/L
8C\J	8C\J	16cc/L
.	.	16b-/JJ
4.F\	4.F\	16a\LL
.	.	16b-\
.	.	16cc\
.	.	16b-\JJ
.	.	16a/LL
.	.	16g/
8A\	8A\	16f/
.	.	16e-/JJ
=140	=140	=140
8.B-\L	16B-\LL	8d/L
.	16c\	.
.	16d\	8f/J
16A\Jk	16c\JJ	.
8.G\L	16B-\LL	8.b-\L
.	16A\	.
.	16G\	.
16F\Jk	16F\JJ	32cc\LL
.	.	32dd\JJJ
8.E-\L	16E-\LL	8ee-\L
.	16F\	.
.	16E-\	8gg\J
16D\Jk	16D\JJ	.
8C/L	8C/L	8.aa-\L
16BB-/L	16BB-/L	.
16AA-/JJ	16AA-/JJ	32gg\LL
.	.	32aa-\JJJ
=141	=141	=141
8GG/L	8GG/L	8bb-\L
8AA-/J	8AA-/J	16aa-\L
.	.	16gg\JJ
4BB-/	4BB-/	8ff\L
.	.	16bb-\L
.	.	16aa-\JJ
4EE-/	4EE-/	16gg\LL
.	.	16aa-\
.	.	16bb-\
.	.	16aa-\JJ
8r	8r	16gg\LL
.	.	16ff\
8G\	8G\	16ee-\
.	.	16dd\JJ
=142	=142	=142
4.A-\	16A-\LL	16cc\LL
.	16B-\	16dd-\
.	16c\	16ee-\
.	16B-\JJ	16dd-\JJ
.	16A-\LL	16cc\LL
.	16B-\	16dd-\
8G\	16G\	16b-\
.	16A-\JJ	16cc\JJ
4F\	8.F\L	8a-/
.	.	8.cc\
.	16E-\Jk	.
4D-\	8.D-\L	.
.	.	16f/LK
.	.	8b-/J
.	16D-\Jk	.
=143	=143	=143
8C/L	8C/L	16en/LL
.	.	16b-/
8BB-/J	8BB-/J	16a-/
.	.	16g/JJ
4C/	4C/	8a-/L
.	.	16g/L
.	.	16f/JJ
4.FF/	4FF/	8f/L
.	.	8cc/J
.	4r	8ff\L
8F\	.	8an\J
=144	=144	=144
8G\L	2r	8b-/L
16F\L	.	16a-/L
16E-\JJ	.	16g/JJ
4D\	.	8f/L
.	.	16b-/L
.	.	16a-/JJ
4E-\	8r	4g/
.	8E-\L	.
[4BB-/	8B-\	4r
.	8D\J	.
=145	=145	=145
4BB-/]	8F\L	2r
.	16E-\L	.
.	16D\JJ	.
4AA/	8C\L	.
.	16F\L	.
.	16E-\JJ	.
4BB-/	8D/L	8r
.	8BB-/J	8dd\L
4E-\	8.E-\L	8gg\
.	.	8b-\J
.	32D\LL	.
.	32C\JJJ	.
=146	=146	=146
8BB-/L	8BB-/L	8dd\L
8C/J	8C/J	16cc\L
.	.	16b-\JJ
4D\	4D\	8a\L
.	.	16dd\L
.	.	16cc\JJ
8.GG/L	8.GG/L	8bn\L
.	.	16gg\L
16G/Jk	16G/Jk	16ff\JJ
8c\L	8c\L	8ee-\L
8E-\J	8E-\J	16ccc\L
.	.	16bb-\JJ
=147	=147	=147
8F\L	8F\L	8aa-\L
16E-\L	16E-\L	16gg\L
16D\JJ	16D\JJ	16ff\JJ
8C\L	8C\L	8.ee-\L
8c\J	16c\L	.
.	16B-\JJ	16gg\Jk
8A-\L	8A-\L	8cc\L
8F\J	8F\	8ff\
8G/L	8G\	8.ee-\
8GG/J	8GG\J	.
.	.	16dd\Jk
=148	=148	=148
4.C/	4C/	8cc\L
.	.	8gg\
.	4r	8ccc\
8C/	.	8een\J
8AA/L	8r	4.ff\
8A/J	8A\L	.
8d\L	8d\	.
8F\J	8F\J	8a/
=149	=149	=149
8G\L	8G\L	8b-/L
16F\L	16F\L	16a-/L
16E-\JJ	16E-\JJ	16g/JJ
8D/L	8D/L	8f\L
8BB-/J	8BB-/J	16dd\L
.	.	16cc\JJ
8E-\L	8E-/L	8b-\L
8C\J	8C/	16ee-\L
.	.	16dd\JJ
8F/L	8F/	8cc\L
8FF/J	8FF/J	16ff\L
.	.	16ee-\JJ
=150	=150	=150
4BB-/	4BB-/	16dd\LL
.	.	16ff\
.	.	16bb-\
.	.	16aa\JJ
4C/	4r	(16bb-\LL
.	.	16aa\
.	.	16bb-\
.	.	16aa\JJ)
4D\	2r	(16bb-\LL
.	.	16aa\
.	.	16bb-\
.	.	16aa\JJ)
4E-\	.	(16ccc\LL
.	.	16bb-\
.	.	16ccc\
.	.	16bb-\JJ)
=151	=151	=151
4F\	1r	(16aa\LL
.	.	16ccc\
.	.	16bb-\
.	.	16aa\JJ)
4G\	.	(16bb-\LL
.	.	16aa\
.	.	16bb-\
.	.	16aa\JJ)
4D\	.	(16bb-\LL
.	.	16aa\
.	.	16bb-\
.	.	16aa\JJ)
4En\	.	(16ccc\LL
.	.	16bb-\
.	.	16ccc\
.	.	16bb-\JJ)
=152	=152	=152
4F\	1r	16aa\LL
.	.	16a\
.	.	16cc\
.	.	16f\JJ
4AA/	.	(16ff\LL
.	.	16gg\
.	.	16ff\
.	.	16gg\JJ)
4BB-/	.	(16ff\LL
.	.	16gg\
.	.	16ff\
.	.	16gg\JJ)
4C/	.	(16ff\LL
.	.	16gg\
.	.	16ff\
.	.	16gg\JJ)
=153	=153	=153
4D\	1r	(16ff\LL
.	.	16gg\
.	.	16ff\
.	.	16gg\JJ)
4E-\	.	(16ff\LL
.	.	16gg\
.	.	16ff\
.	.	16gg\JJ)
4F\	.	8ff\L
.	.	16cc\L
.	.	16dd\JJ
4FF/	.	8ee-\L
.	.	16ff\L
.	.	16ee-\JJ
*	*clefC3	*
=154	=154	=154
4BB-/	16r	4dd\
.	16F/LL	.
.	16B-/	.
.	16A/JJ	.
4C/	(16B-/LL	4r
.	16A/	.
.	16B-/	.
.	16A/JJ)	.
4D\	(16B-/LL	2r
.	16A/	.
.	16B-/	.
.	16A/JJ)	.
4E-\	(16c/LL	.
.	16B-/	.
.	16c/	.
.	16B-/JJ)	.
=155	=155	=155
4F\	16A/LL	1r
.	16c/	.
.	16B-/	.
.	16A/JJ	.
4G\	(16B-/LL	.
.	16c/	.
.	16B-/	.
.	16c/JJ)	.
4D\	(16B-/LL	.
.	16c/	.
.	16B-/	.
.	16c/JJ)	.
4En\	(16B-/LL	.
.	16c/	.
.	16B-/	.
.	16c/JJ)	.
=156	=156	=156
4F\	16A/LL	1r
.	16c/	.
.	16B-/	.
.	16A/JJ	.
4AA/	(16f\LL	.
.	16g\	.
.	16f\	.
.	16g\JJ)	.
4BB-/	(16f\LL	.
.	16g\	.
.	16f\	.
.	16g\JJ)	.
4C/	(16f\LL	.
.	16g\	.
.	16f\	.
.	16g\JJ)	.
=157	=157	=157
4D\	(16f\LL	1r
.	16g\	.
.	16f\	.
.	16g\JJ)	.
4E-\	(16f\LL	.
.	16g\	.
.	16f\	.
.	16g\JJ)	.
4F\	8f\L	.
.	16c\L	.
.	16d\JJ	.
4FF/	8e-\L	.
.	16f\L	.
.	16e-\JJ	.
=158	=158	=158
4BB-/	4d\	8r
.	.	32gg\LLL
.	.	32aa\J
.	.	16bb-\JJ
4C/	4r	16aa\LL
.	.	16bb-\
.	.	16gg\
.	.	16aa\JJ
4D\	8r	4ff\
.	(32B-\LLL	.
.	32c\J	.
.	16d\JJ)	.
4E-\	16c\LL	4r
.	16d\	.
.	16B-\	.
.	16c\JJ	.
=159	=159	=159
4F\	4A/	16r
.	.	16cc\LL
.	.	16dd\
.	.	16a\JJ
4G\	4r	16b-\LL
.	.	16g\
.	.	16dd\
.	.	16b-\JJ
4D\	2r	8ff\L
.	.	32b-\LL
.	.	32cc\J
.	.	16dd\JJ
4En\	.	16cc\LL
.	.	16dd\
.	.	16b-\
.	.	16cc\JJ
=160	=160	=160
4F\	8r	4a/
.	16c\LL	.
.	16d\JJ	.
4AA/	8e-\L	4r
.	16d\L	.
.	16c\JJ	.
4BB-/	8d/L	2r
.	32G/LL	.
.	32A/J	.
.	16B-/JJ	.
4C/	16A/LL	.
.	16B-/	.
.	16G/	.
.	16A/JJ	.
=161	=161	=161
4D\	8F\L	8r
.	(32d\LL	32b-\LLL
.	32e-\J	32cc\J
.	16f\JJ)	16dd\JJ
4E-\	16e-\LL	16cc\LL
.	16f\	16dd\
.	16d\	16b-\
.	16e-\JJ	16cc\JJ
8.F\L	8c/L	8a\L
.	16A/L	16cc\L
32E-\LL	16B-/JJ	16dd\JJ
32D\JJJ	.	.
8C\L	8c/L	8ee-\L
8F\J	16B-/L	16dd\L
.	16A/JJ	16cc\JJ
=162	=162	=162
4BB-/	8B-\L	4dd\
.	8f\J	.
8r	8b-\L	4r
8B-\	8d\J	.
8d\L	8f\L	2r
16c\L	16e-\L	.
16B-\JJ	16d\JJ	.
8A\L	8c\L	.
8F\J	16f\L	.
.	16e-\JJ	.
=163	=163	=163
8B-\L	8d\L	1r
8G\J	16b-\L	.
.	16a\JJ	.
8c\L	8g\L	.
8C\J	16cc\L	.
.	16b-\JJ	.
8F\L	16a\LL	.
.	16b-\	.
8En\J	16cc\	.
.	16b-\JJ	.
8F\L	16a\LL	.
.	16g\	.
8D\J	16f\	.
.	16e-\JJ	.
=164	=164	=164
8r	4d\	8r
8G\L	.	8b-\L
8d\	8r	8ff\
8F\J	8f\	8a\J
8G\L	8.B-/L	8b-/L
16F\L	.	16a-/L
16E-\JJ	16c/Jk	16g/JJ
8D\L	8d\L	8f/L
8G\J	8B-\J	16b-/L
.	.	16a-/JJ
=165	=165	=165
16E-\LL	8e-\L	8g\L
16e-\J	.	.
8c\J	8c\J	16ee-\L
.	.	16dd\JJ
8f\L	8f/L	8cc\L
8F\J	8F/J	16ff\L
.	.	16ee-\JJ
4B-\	8B-\L	16dd\LL
.	.	16ee-\
.	8d\	16ff\
.	.	16ee-\JJ
8r	8f\	16dd\LL
.	.	16cc\
8d\	8d\J	16b-\
.	.	16a\JJ
=166	=166	=166
8.e-\L	16e-\LL	8g/
.	16f\	.
.	16g\	8r
16d\Jk	16f\JJ	.
8.c\L	16e-\LL	8r
.	16d\	.
.	16c\	16ee-\LL
16B-\Jk	16B-\JJ	16dd\JJ
4A\	16A/LL	16cc\LL
.	16c/	16ee-\
.	16B-/	16dd\
.	16A/JJ	16cc\JJ
4B-\	16B-\LL	8dd\L
.	16c\	.
.	16d\	16cc\L
.	16en\JJ	16b-\JJ
=167	=167	=167
4F\	8.f\L	16a/LL
.	.	16cc/
.	.	16b-/
*	*clefF4	*
.	16F\Jk	16a/JJ
4G\	8G\L	16b-\LL
.	.	16cc\
.	16F\L	16dd\
.	16E-\JJ	16ee-\JJ
4D\	16D\LL	4ff\
.	16F\	.
.	16E-\	.
.	16D\JJ	.
4E-\	16E-\LL	8.b-\L
.	16F\	.
.	16G\	.
.	16A\JJ	16cc\Jk
=168	=168	=168
4BB-/	8B-\L	16dd/LL
.	.	16d/
.	8BB-\J	16g/
.	.	16f/JJ
4C/	16r	16e-\LL
.	16C\LL	16ee-\
.	16D\	16ff\
.	16E-\JJ	16gg\JJ
4D\	16D\LL	4.ff\
.	16d\	.
.	16c\	.
.	16d\JJ	.
4E-\	16G\LL	.
.	16c\	.
.	16c\	[8ee-\
.	16B-\JJ	.
=169	=169	=169
4F\	8.A\L	8.ee-\L]
.	16A\Jk	16dd\Jk
4G\	8.B-\L	8.dd\L
.	16B-\Jk	16dd\Jk
4E-\	8.B-\L	8.dd\L
.	16B-\Jk	16cc\Jk
4F\	8.B-\L	8.cc\L
.	16A\Jk	32dd\LL
.	.	32ee-\JJJ
=170	=170	=170
*	*	*^
4BB-/	8B-\L	4dd/	8r
.	8BB-\J	.	8d\
4C/	8.C/L	8r	4e-\
.	.	[8cc/	.
.	16C/Jk	.	.
4D\	8.D\L	8cc/L]	4f\
.	.	8b-/	.
.	16D\Jk	.	.
4E-\	8.E-\L	8.b-/	8.g\L
.	16E-\Jk	16b-/Jk	16g\Jk
=171	=171	=171	=171
4F\	8.F\L	8.a/L	8.f\L
.	16F\Jk	16a/Jk	16e-\Jk
4G\	8.G\L	8.b-/L	8.d\L
.	16G\Jk	16b-/Jk	16d\Jk
4E-\	8.E-\L	8.b-/L	8.g\L
.	16E-\Jk	16b-/Jk	16g\Jk
4F\	8.F\L	8.a/L	8.f\L
.	16F\Jk	16a/Jk	16e-\Jk
=172	=172	=172	=172
4BB-/	4BB-/	4b-;/	4d\
4r	4r	4r	4r
2r	2r	2r	2r
*	*	*v	*v
==	==	==
*-	*-	*-
!!!ENC: Craig Stuart Sapp
!!!END: 2004/12/16/
